X: 1
T:When the Piper Plays  "CYMRU"
M:C
L:1/8
Q:80
C:
S:Slow Air
K:HP
|: Ade|
{g}f4-fe{g}d3/2B/2|
{g}A4-Ad{g}dc|  !
{Gdc}d4-d{g}d/2e/2{g}f3/2g/2|
{aef}e4-e2fg| |
{ag}a4-ag/2f/2{g}ed|  !
{g}f3/2d/2{g}A2-AfdB|
{g}A4-A{g}A/2B/2d2|
{g}d4-dAde:|  !
